X:1
T:Title
%%score { ( 1 4 ) | ( 2 3 ) }
L:1/8
Q:1/4=100
M:4/4
K:C
V:1 treble nm="Grand Piano"
V:4 treble 
V:2 bass 
V:3 bass 
V:1
 A2 A2 A2 A2 | [Ac]>[^GB] [Ac]>[GB] [Ac]4 | [Ad]2 [Ac]4 [CF]2 | [CE]6 z2 | %4
w: F.~A.~Clark * * *||||
 [G_B]2 [FB]2 [EB]2 [DB]2 | [G_B]>[^FA] [GB]>[FA] [GB]4 | [_Bd]2 [Be]4 [Bd]2 | %7
w: |||
 [Ad]2 [Ac]2 [GB]2 [G_B]2 | A2 A2 A2 A2 | [Ac]>[^GB] [Ac]>[GB] [Ac]4 | [^F_e]2 [Fe]2 [Fd]2 [FA]2 | %11
w: ||||
 _B6 z2 | f2 f4 d2 | c>d c>d [FAc]4 | [B,FA]2 [_B,EA]4 [B,EG]2 | [A,CF]6 z2 | %16
w: |||||
 [CAc]2 [CAc]4 (3[CAc][^GB][CAc] | [^Gd]2 [Ac]4 [FA]2 | [Ec]2 [E_B]2 [EB]2 [_EA]2 | [E_B]8 | %20
w: ||||
 [_Bd]2 [Bd]4 (3[B-d][B^c][Bd] | [_Be]2 [Bd]4 [GB]2 | [_Bd]2 [Bd]2 [Be]2 [Bd]2 | [Ac]8 | %24
w: ||||
 [CAc]2 [CAc]4 (3[Ac][^GB][Ac] | [Ad]2 [Ac]4 [Ac]2 | [^F_e]2 [Fe]2 [Fd]2 [FA]2 | _B6 z2 | %28
w: ||||
 f2 f4 d2 | c>d c>d [Ac]4 | [FA]2 [EA]4 [EG]2 |[M:8/4] [CF]8 z8 |] %32
w: ||||
V:2
 [F,CF]2 [F,CE]2 [F,CD]2 [F,C]2 | [F,C]>[F,C] [F,C]>[F,C] [F,C]4 | [F,F]2 [F,F]4 [F,A,]2 | %3
 [G,_B,]6 z2 | [C,C]2 [C,C]2 [C,C]2 [C,C]2 | [C,C]>[C,C] [C,C]>[C,C] [C,C]4 | %6
 [C,C]2 [C,C]4 [C,C]2 | [F,C]2 [F,F]2 [G,D]2 [C,C]2 | [F,CF]2 [F,CE]2 [F,CD]2 [F,C]2 | %9
 [F,C]>[F,C] [F,C]>[F,C] [F,C]4 | [D,C]2 [D,C]2 [D,D]2 [D,D]2 | [G,DG]6 z2 | %12
 [B,D^G]2 [B,DG]4 [B,FG]2 | [CFA]>[CFA] [CFA]>[A,FA][K:bass] F,4 | G,2 C,4 C,2 | F,6 z2 | %16
 F,2 F,4 (3F,-[F,D]F, | [F,B,]2 [F,C]4 [F,C]2 | [C,C]2 [C,G,]2 [C,G,]2 [C,^F,]2 | G,4 D2 C2 | %20
 [C,C]2 [C,C]4 (3:2:2[C,C]2 [C,C] | [C,C]2 [C,C]4 [C,C]2 | [C,C]2 [C,C]2 [C,C]2 [C,C]2 | %23
 F,2 (3C,F,A, D2 C2 | F,2 F,4 (3:2:2[F,C]2 [F,C] | [F,C]2 [F,C]4 [F,C]2 | %26
 [D,C]2 [D,C]2 [D,D]2 [D,D]2 | [G,DG]6 z2 | [B,D^G]2 [B,DG]4 [B,FG]2 | %29
 [CFA]>[CFA] [CFA]>[A,FA][K:bass] [F,F]4 | [G,B,]2 [C,_B,]4 [C,B,]2 |[M:8/4] [F,A,]8 z8 |] %32
V:3
 x8 | x8 | x8 | x8 | x8 | x8 | x8 | x8 | x8 | x8 | x8 | x8 | x8 | x4[K:bass] x4 | x8 | x8 | x8 | %17
 x8 | x8 | C,2 (3C,E,G,- G,4 | x8 | x8 | x8 | x8 | x8 | x8 | x8 | x8 | x8 | x4[K:bass] x4 | x8 | %31
[M:8/4] x16 |] %32
V:4
 x8 | x8 | x8 | x8 | x8 | x8 | x8 | x8 | x8 | x8 | x8 | x8 | x8 | x8 | x8 | x8 | x8 | x8 | x8 | %19
 x8 | x8 | x8 | x8 | C6 z2 | x8 | x8 | x8 | x8 | x8 | x8 | x8 |[M:8/4] x16 |] %32

